X:1
T:Stuttgart, 87.87
T:Stuttgart, 87.87
T:Christian Friedrich Witt, Psalmodia Sacra, 1715
T:Public Domain Courtesy of the Cyber Hymnal™
C:Christian Friedrich Witt, Psalmodia Sacra, 1715
Z:Public Domain
Z:Courtesy of the Cyber Hymnal™
%%score ( 1 2 ) ( 3 4 )
L:1/8
Q:1/4=110
M:4/4
K:G
V:1 treble 
V:2 treble 
V:3 bass 
V:4 bass 
V:1
 D2 D2 [B,G]2 [B,G]2 | [EA]2 [DA]2 [DB]2 [DG]2 | [Dd]2 [Gd]2 [Ge]2 [Gc]2 | [GA]2 [Fd]2 [GB]4 | %4
 [GB]2 [GB]2 [FA]2 [FB]2 | [B,G]2 [EA]2 [DG]2 [DF]2 | [DG]2 [CE]2 [B,D]2 [DG]2 | %7
 [DG]2 [DF]2 [DG]4 |] %8
V:2
 D2 D2 x4 | x8 | x8 | x8 | x8 | x8 | x8 | x8 |] %8
V:3
 [G,B,]2 [F,A,]2 [E,G,]2 [D,G,]2 | [C,G,]2 [D,F,]2 G,2 [G,,B,]2 | %2
 [B,,G,]2 [G,,B,]2 [C,C]2 [A,,E]2 | [D,D]2 [D,D]2 [G,D]4 | [E,E]2 [E,B,]2 [E,C]2 [^D,B,]2 | %5
 [E,B,]2 [^C,A,]2 [D,A,]2 [=C,A,]2 | [B,,G,]2 [C,G,]2 [G,,D]2 B,2 | (A,B,) [D,C]2 [G,,B,]4 |] %8
V:4
 x8 | x4 G,2 x2 | x8 | x8 | x8 | x8 | x6 (B,,C,) | D,2 x6 |] %8

